lib/flags/za-south-africa.svg

<svg xmlns="http://www.w3.org/2000/svg" fill="none" aria-hidden="true" viewBox="0 0 42 30"><g id="Country=ZA - South Africa, Size=sm (36x24)" filter="url(#filter0_dd_91_23871)"><g clip-path="url(#clip0_91_23871)"><g id="flag"><mask id="mask0_91_23871" width="36" height="24" x="3" y="2" maskUnits="userSpaceOnUse" style="mask-type:alpha"><rect id="mask" width="36" height="24" x="3" y="2" fill="white"/></mask><g mask="url(#mask0_91_23871)"><g id="contents"><path id="middle" fill="#F7FCFF" fill-rule="evenodd" d="M3 2H39V26H3V2Z" clip-rule="evenodd"/><path id="top" fill="#E31D1C" fill-rule="evenodd" d="M3 2V10H39V2H3Z" clip-rule="evenodd"/><path id="bottom" fill="#3D58DB" fill-rule="evenodd" d="M3 18V26H39V18H3Z" clip-rule="evenodd"/><g id="Combined Shape"><mask id="path-6-outside-1_91_23871" width="40" height="36" x="1" y="-4" fill="black" maskUnits="userSpaceOnUse"><rect width="40" height="36" x="1" y="-4" fill="white"/><path fill-rule="evenodd" d="M20.3571 12L3 0V28L20.3571 16H39V12H20.3571Z" clip-rule="evenodd"/></mask><path fill="#5EAA22" fill-rule="evenodd" d="M20.3571 12L3 0V28L20.3571 16H39V12H20.3571Z" clip-rule="evenodd"/><path fill="#F7FCFF" d="M3 0L4.13736 -1.64512L1 -3.81416V0H3ZM20.3571 12L19.2198 13.6451L19.7331 14H20.3571V12ZM3 28H1V31.8142L4.13736 29.6451L3 28ZM20.3571 16V14H19.7331L19.2198 14.3549L20.3571 16ZM39 16V18H41V16H39ZM39 12H41V10H39V12ZM1.86264 1.64512L19.2198 13.6451L21.4945 10.3549L4.13736 -1.64512L1.86264 1.64512ZM5 28V0H1V28H5ZM19.2198 14.3549L1.86264 26.3549L4.13736 29.6451L21.4945 17.6451L19.2198 14.3549ZM39 14H20.3571V18H39V14ZM37 12V16H41V12H37ZM20.3571 14H39V10H20.3571V14Z" mask="url(#path-6-outside-1_91_23871)"/></g><path id="triangle" fill="#272727" stroke="#FECA00" stroke-width="2" d="M3.5547 7.16795L2 6.13148V8V20V21.8685L3.5547 20.8321L12.5547 14.8321L13.8028 14L12.5547 13.1679L3.5547 7.16795Z"/></g></g></g></g></g><defs><filter id="filter0_dd_91_23871" width="42" height="30" x="0" y="0" color-interpolation-filters="sRGB" filterUnits="userSpaceOnUse"><feFlood flood-opacity="0" result="BackgroundImageFix"/><feColorMatrix in="SourceAlpha" result="hardAlpha" values="0 0 0 0 0 0 0 0 0 0 0 0 0 0 0 0 0 0 127 0"/><feOffset dy="1"/><feGaussianBlur stdDeviation="1"/><feColorMatrix values="0 0 0 0 0.0627451 0 0 0 0 0.0941176 0 0 0 0 0.156863 0 0 0 0.06 0"/><feBlend in2="BackgroundImageFix" result="effect1_dropShadow_91_23871"/><feColorMatrix in="SourceAlpha" result="hardAlpha" values="0 0 0 0 0 0 0 0 0 0 0 0 0 0 0 0 0 0 127 0"/><feOffset dy="1"/><feGaussianBlur stdDeviation="1.5"/><feColorMatrix values="0 0 0 0 0.0627451 0 0 0 0 0.0941176 0 0 0 0 0.156863 0 0 0 0.1 0"/><feBlend in2="effect1_dropShadow_91_23871" result="effect2_dropShadow_91_23871"/><feBlend in="SourceGraphic" in2="effect2_dropShadow_91_23871" result="shape"/></filter><clipPath id="clip0_91_23871"><rect width="36" height="24" x="3" y="2" fill="white" rx="2"/></clipPath></defs></svg>

<svg xmlns="http://www.w3.org/2000/svg" fill="none" aria-hidden="true" viewBox="0 0 42 30"><g filter="url(#a)"><g clip-path="url(#b)"><mask id="c" width="36" height="24" x="3" y="2" maskUnits="userSpaceOnUse" style="mask-type:alpha"><path fill="#fff" d="M3 2h36v24H3z"/></mask><g mask="url(#c)"><path fill="#F7FCFF" fill-rule="evenodd" d="M3 2h36v24H3V2Z" clip-rule="evenodd"/><path fill="#E31D1C" fill-rule="evenodd" d="M3 2v8h36V2H3Z" clip-rule="evenodd"/><path fill="#3D58DB" fill-rule="evenodd" d="M3 18v8h36v-8H3Z" clip-rule="evenodd"/><mask id="d" width="40" height="36" x="1" y="-4" fill="#000" maskUnits="userSpaceOnUse"><path fill="#fff" d="M1-4h40v36H1z"/><path fill-rule="evenodd" d="M20.357 12 3 0v28l17.357-12H39v-4H20.357Z" clip-rule="evenodd"/></mask><path fill="#5EAA22" fill-rule="evenodd" d="M20.357 12 3 0v28l17.357-12H39v-4H20.357Z" clip-rule="evenodd"/><path fill="#F7FCFF" d="m3 0 1.137-1.645L1-3.815V0h2Zm17.357 12-1.137 1.645.513.355h.624v-2ZM3 28H1v3.814l3.137-2.169L3 28Zm17.357-12v-2h-.624l-.513.355L20.357 16ZM39 16v2h2v-2h-2Zm0-4h2v-2h-2v2ZM1.863 1.645l17.357 12 2.274-3.29-17.357-12-2.274 3.29ZM5 28V0H1v28h4Zm14.22-13.645-17.357 12 2.274 3.29 17.357-12-2.274-3.29ZM39 14H20.357v4H39v-4Zm-2-2v4h4v-4h-4Zm-16.643 2H39v-4H20.357v4Z" mask="url(#d)"/><path fill="#272727" stroke="#FECA00" stroke-width="2" d="M3.555 7.168 2 6.131V21.87l1.555-1.037 9-6L13.803 14l-1.248-.832-9-6Z"/></g></g></g><defs><clipPath id="b"><rect width="36" height="24" x="3" y="2" fill="#fff" rx="2"/></clipPath><filter id="a" width="42" height="30" x="0" y="0" color-interpolation-filters="sRGB" filterUnits="userSpaceOnUse"><feFlood flood-opacity="0" result="BackgroundImageFix"/><feColorMatrix in="SourceAlpha" result="hardAlpha" values="0 0 0 0 0 0 0 0 0 0 0 0 0 0 0 0 0 0 127 0"/><feOffset dy="1"/><feGaussianBlur stdDeviation="1"/><feColorMatrix values="0 0 0 0 0.0627451 0 0 0 0 0.0941176 0 0 0 0 0.156863 0 0 0 0.06 0"/><feBlend in2="BackgroundImageFix" result="effect1_dropShadow_91_23871"/><feColorMatrix in="SourceAlpha" result="hardAlpha" values="0 0 0 0 0 0 0 0 0 0 0 0 0 0 0 0 0 0 127 0"/><feOffset dy="1"/><feGaussianBlur stdDeviation="1.5"/><feColorMatrix values="0 0 0 0 0.0627451 0 0 0 0 0.0941176 0 0 0 0 0.156863 0 0 0 0.1 0"/><feBlend in2="effect1_dropShadow_91_23871" result="effect2_dropShadow_91_23871"/><feBlend in="SourceGraphic" in2="effect2_dropShadow_91_23871" result="shape"/></filter></defs></svg>
